X: 1815
T: Pub With No Beer Varsovianna
B: australian traditional tunes wiki
M:3/4
L:1/8
R: Varsovienne
Q: 1/4=100
K:C
V:1 
c>c|:"C"c2B2d2|c2z2E>E|"Dm"D2C2D2|"F"A2z2A>A|"G7"G2B2A2|G2z2D>D|1D2E2F2|"C"E2z2c>c:|2"G7"F2E2D2|"C"C2z2e>f||
|:"C"g>gg2f2|e>ee2d2|c>ce2g2|"Dm"a2z2g2|f>ff2e2|"G7"d>dd2c2|1B>BB2A2|"C"G2z2e>f:|2"G7"B>BA2B2|"C"c2z2||
% abcbook-tune_id 6342d53aba2c5afcabacb6fd


% abcbook-boost 0
% abcbook-tablature 
% abcbook-transpose 
% abcbook-lastupdated 1665324385561
% abcbook-soundfonts 
% abcbook-repeats 1
% NFF Book 2016

